X:1
T:F Major Abraham Maxim, 1802
T:Isaac Watts, 1707 (Hymn 44, Book 1)                   88. 88. (L. M.) 
T:Falmouth * Transcribed from The Village Harmony, 1803.
%%score [ 1 2 3 4 ]
L:1/8
Q:1/4=150
M:3/2
K:F
V:1 treble nm="Tr." snm="Tr."
V:2 treble nm="C." snm="C."
V:3 treble-8 nm="T." snm="T."
V:4 bass nm="B." snm="B."
V:1
"^1. Say,  \"Live        for     ev       –       er,         wondrous    King!   Born  to              re   –   deem,        and      strong           to          save;   Then" c4 | %1
 (c4 B4) A4 | (f4 c4) (G2 B2) | (A4 d4) c4 | c8 c4 | (c4 B4) (A2 G2) | (A4 B4) c4 | (c4 f4) d4 | %8
 c8 c4 | %9
"^1. ask    the           mon – ster,     \"Where's   thy     sting?\" And,  \"Where's  thy   vic    –    tory,    boa  –   sting    grave?\"" (A4 B4) (3(c2 B2 A2) | %10
 (G4 A4) (3(B2 A2 G2) | (F4 G4) (3(A2 B2 c2) | d8 c4 | (f4 B4) c4 | (d4 G4) B4 | (c4 d4) (c2 B2) | %16
 A12 |] %17
V:2
"^2. Here's  love   and   grief            be    –    yond     de –  gree,   The  Lord          of        glo        –      ry          dies             for         men!   But" A4 | %1
 (A4 G4) F4 | F8 E4 | (F4 B4) G4 | A8 A4 | (F4 G4) G4 | (A4 G4) F4 | F8 F4 | E8 E4 | %9
"^2. lo!     what      sud – den          joys          we          see;    Je  –  sus           the   dead           re   –   vives        a   –   gain!" (F4 G4) (3(A2 G2 F2) | %10
 (E4 F4) (G2 E2) | (C4 G2 E2) F4 | F8 F4 | F8 (F2 E2) | G8 G4 | (A4 G2 F2) E4 | F12 |] %17
V:3
"^3.  The   ri   –    sing    God              for    –   sakes    the   tomb!   The   tomb      in        vain             for    –    bids              his        rise;   Che –" F4 | %1
 (A4 B4) c4 | (d3 e f4) (g2 e2) | (c4 f4) e4 | f8 c4 | (c4 d4) e4 | (f3 e d4) (c2 A2) | %7
 (F3 G A4) (B2 A2) | G8 c4 | %9
"^3. – ru – bic        le    –   gions      guard       him   home,  And  shout     him     wel     –    come    to _____  the    skies." (c4 B4) (3(A2 B2 c2) | %10
 (B4 A4) (3(G2 A2 B2) | (A4 G4) (3(F2 G2 A2) | B8 c4 | (d3 e f4) (c2 A2) | (B3 c d4) (B2 G2) | %15
 (A4 B2 A2) G4 | F12 |] %17
V:4
"^4. Break  off      your   fears,          ye          saints,   and   tell    How  high        our      great           De     –    li       –     verer   reigns;   Sing" F,4 | %1
 (F,4 G,4) A,4 | (B,4 A,4) G,4 | (A,4 B,4) C4 | F,8 F,4 | (A,4 B,4) C4 | (F,4 G,4) (A,2 F,2) | %7
 F,8 B,,4 | C,8 A,4 | %9
"^4. how  he         spoiled    the     hosts       of          hell,    And  led           the      mon   –   ster      death        in   chains." (A,4 G,4) (3(F,2 G,2 A,2) | %10
 (G,4 F,4) (3(E,2 F,2 G,2) | (F,4 E,4) F,4 | B,,8 A,4 | B,8 A,4 | %14
"^_____________________________________________________________________________________\n*. Titled Portland in The Village Harmony, 1803, and some later books." G,8 G,4 | %15
 (F,4 B,,4) C,4 | F,12 |] %17

